Suru++-Ubuntu/apps/scalable/VBox.svg

<svg width="256" height="256" version="1.1" viewBox="0 0 67.73 67.73" xmlns="http://www.w3.org/2000/svg" xmlns:xlink="http://www.w3.org/1999/xlink">
 <defs>
  <linearGradient id="linearGradient1108" x1="296" x2="296" y1="-212" y2="236" gradientUnits="userSpaceOnUse">
   <stop style="stop-color:#ffffff" offset="0"/>
   <stop style="stop-color:#ffffff;stop-opacity:.09803922" offset=".125"/>
   <stop style="stop-color:#000000;stop-opacity:.09803922" offset=".925"/>
   <stop style="stop-color:#000000;stop-opacity:.49803922" offset="1"/>
  </linearGradient>
  <clipPath id="clipPath1082-3-7-2">
   <path d="M 361.9375,-212 C 507.2348,-212 528,-191.28677 528,-46.125 V 70.125 C 528,215.28618 507.2348,236 361.9375,236 H 214.0625 C 68.7652,236 48,215.28618 48,70.125 V -46.125 C 48,-191.28677 68.7652,-212 214.0625,-212 Z" style="fill:#8c59d9"/>
  </clipPath>
  <filter id="filter907" x="-.02" y="-.03" width="1.046" height="1.05" style="color-interpolation-filters:sRGB">
   <feGaussianBlur stdDeviation="2.32"/>
  </filter>
  <filter id="filter4569" x="-.01" y="-.01" width="1.023" height="1.025" style="color-interpolation-filters:sRGB">
   <feGaussianBlur stdDeviation="1.16"/>
  </filter>
  <filter id="filter1034" x="-.04" y="-.07" width="1.071" height="1.149" style="color-interpolation-filters:sRGB">
   <feGaussianBlur stdDeviation="1.654"/>
  </filter>
 </defs>
 <g transform="translate(0,-229.26666)">
  <path transform="matrix(.26970778 0 0 .26970778 -7.1289177 220.56049)" d="m188.96876 43.999995c72.64865 0 83.03125 10.356615 83.03125 82.937505v58.125c0 72.58059-10.3826 82.9375-83.03125 82.9375h-73.9375c-72.648654 0-83.031254-10.35691-83.031254-82.9375v-58.125c0-72.58089 10.3826-82.937505 83.031254-82.937505z" style="filter:url(#filter4569);opacity:.1"/>
  <path transform="matrix(.26970778 0 0 .26970778 -7.1289177 220.56049)" d="m188.96876 45.999995c72.64865 0 83.03125 10.356615 83.03125 82.937505v58.125c0 72.58059-10.3826 82.9375-83.03125 82.9375h-73.9375c-72.648654 0-83.031254-10.35691-83.031254-82.9375v-58.125c0-72.58089 10.3826-82.937505 83.031254-82.937505z" style="filter:url(#filter907);opacity:.2"/>
  <path d="m43.837426 232.48587c19.593907 0 22.394175 2.79326 22.394175 22.36889v15.67677c0 19.57555-2.800268 22.36888-22.394175 22.36888h-19.94152c-19.593906 0-22.394174-2.79333-22.394174-22.36888v-15.67677c0-19.57563 2.8002681-22.36889 22.394174-22.36889z" style="fill:#4e91d9"/>
  <g transform="matrix(.57597716 0 0 .57597716 5.2434299 236.37531)">
   <path d="m47.810846 18.335026-2.114543 8.156408-6.966917 26.781295-5.225638-17.437-0.559889-1.781832h-39.219949v4.877009l35.518605 0.123065 7.278565 24.187505 2.550308 8.500031 2.239559-8.593342 7.091043-27.219129 4.229978 12.781452 2.302066 6.937118 2.425292-6.905716 5.007754-14.374872 6.190038 18.968515 0.558998 1.719029h1.804682l34.816732-0.02019v-5.11163l-33.012938 0.131745-7.931324-24.250305-2.301171-6.999922-2.426188 6.96852-5.007754 14.374873-4.603238-13.812331z" style="fill:#311515;filter:url(#filter1034);opacity:.3"/>
   <path d="m47.810846 18.335026-2.114543 8.156408-6.966917 26.781295-5.225638-17.437-0.559889-1.781832h-39.219949v4.877009l35.518605 0.123065 7.278565 24.187505 2.550308 8.500031 2.239559-8.593342 7.091043-27.219129 4.229978 12.781452 2.302066 6.937118 2.425292-6.905716 5.007754-14.374872 6.190038 18.968515 0.558998 1.719029h1.804682l34.816732-0.02019v-5.11163l-33.012938 0.131745-7.931324-24.250305-2.301171-6.999922-2.426188 6.96852-5.007754 14.374873-4.603238-13.812331z" style="fill:#ffffff"/>
   <g transform="translate(.16473434 -.00013893269)">
    <path transform="matrix(.45936428 0 0 .45936428 -9.2682722 -12.341757)" d="m5.6757812 113.20117v42.75977c0 9.24829 0.1655716 17.50559 0.5996094 24.875 0.2170189 3.6847 0.5009695 7.14864 0.8652344 10.40234 0.3642649 3.25371 0.8083678 6.29796 1.3457031 9.14649 0.5373354 2.84852 1.1680668 5.50154 1.9042969 7.9707 0.73623 2.46916 1.578113 4.75353 2.539063 6.86914 0.960949 2.11561 2.04046 4.06173 3.251953 5.84961 1.211492 1.78787 2.555108 3.41834 4.042968 4.9043 1.487861 1.48595 3.120104 2.82725 4.910157 4.0371 1.790053 1.20986 3.737399 2.28848 5.855468 3.24805 2.11807 0.95957 4.406996 1.80006 6.878907 2.53516 2.47191 0.7351 5.126939 1.36394 7.978515 1.90039 2.851577 0.53645 5.899184 0.98014 9.15625 1.34375s6.723729 0.64864 10.41211 0.86523c7.37676 0.43319 15.641473 0.59766 24.898437 0.59766h75.371097c9.25696 0 17.52167-0.16447 24.89843-0.59766 3.68838-0.21659 7.15505-0.50162 10.41211-0.86523 3.25707-0.36361 6.30468-0.8073 9.15625-1.34375 2.85158-0.53645 5.50661-1.16529 7.97852-1.90039s4.76084-1.57559 6.87891-2.53516 4.06541-2.03819 5.85546-3.24805c1.79006-1.20985 3.4223-2.55115 4.91016-4.0371 1.48786-1.48596 2.83148-3.11643 4.04297-4.9043 1.21149-1.78788 2.291-3.734 3.25195-5.84961s1.80283-4.39998 2.53907-6.86914c0.73623-2.46916 1.36696-5.12218 1.90429-7.9707 0.53734-2.84853 0.98144-5.89278 1.34571-9.14649 0.36426-3.2537 0.64821-6.71764 0.86523-10.40234 0.43404-7.36941 0.59961-15.62671 0.59961-24.875v-9.85938c-0.03918 0.07683-0.32489 0.56103-0.32422 0.57032l-75.79297 0.04492h-3.92969l-1.21679-3.74219-13.47461-41.29297-10.90235 31.29297-5.27929 15.0332-5.01172-15.10156-9.20703-27.82422-15.4375 59.25391-4.875 18.70703-5.552738-18.50391-15.84375-52.65429-77.322265-0.26758s-0.4282399 1.4063-0.4785157 1.58398z" style="fill:#ffffff;opacity:.1"/>
   </g>
  </g>
  <path transform="matrix(.13485389 0 0 .13485389 -4.9712555 261.01666)" d="M 361.9375,-212 C 507.2348,-212 528,-191.28677 528,-46.125 V 70.125 C 528,215.28618 507.2348,236 361.9375,236 H 214.0625 C 68.7652,236 48,215.28618 48,70.125 V -46.125 C 48,-191.28677 68.7652,-212 214.0625,-212 Z" clip-path="url(#clipPath1082-3-7-2)" style="fill:none;opacity:.2;stroke-linecap:round;stroke-linejoin:round;stroke-width:8;stroke:url(#linearGradient1108)"/>
 </g>
</svg>

<svg xmlns="http://www.w3.org/2000/svg" xmlns:xlink="http://www.w3.org/1999/xlink" width="256" height="256" version="1.1" viewBox="0 0 67.73 67.73">
 <defs>
  <linearGradient id="linearGradient1108" x1="296" x2="296" y1="-212" y2="236" gradientUnits="userSpaceOnUse" xlink:href="#linearGradient1013"/>
  <linearGradient id="linearGradient1013">
   <stop style="stop-color:#ffffff" offset="0"/>
   <stop offset=".125" style="stop-color:#ffffff;stop-opacity:0.09803922"/>
   <stop offset=".925" style="stop-color:#000000;stop-opacity:0.09803922"/>
   <stop style="stop-color:#000000;stop-opacity:0.49803922" offset="1"/>
  </linearGradient>
  <clipPath id="clipPath1082-3-7-2" clipPathUnits="userSpaceOnUse">
   <path style="fill:#8c59d9" d="M 361.9375,-212 C 507.2348,-212 528,-191.28677 528,-46.125 V 70.125 C 528,215.28618 507.2348,236 361.9375,236 H 214.0625 C 68.7652,236 48,215.28618 48,70.125 V -46.125 C 48,-191.28677 68.7652,-212 214.0625,-212 Z"/>
  </clipPath>
  <filter id="filter907" width="1.046" height="1.05" x="-.02" y="-.03" style="color-interpolation-filters:sRGB">
   <feGaussianBlur stdDeviation="2.32"/>
  </filter>
  <filter id="filter4569" width="1.023" height="1.025" x="-.01" y="-.01" style="color-interpolation-filters:sRGB">
   <feGaussianBlur stdDeviation="1.16"/>
  </filter>
  <filter id="filter1034" width="1.071" height="1.149" x="-.04" y="-.07" style="color-interpolation-filters:sRGB">
   <feGaussianBlur stdDeviation="1.654"/>
  </filter>
 </defs>
 <g transform="translate(0,-229.26666)">
  <path style="opacity:0.1;filter:url(#filter4569)" d="m 188.96876,43.999995 c 72.64865,0 83.03125,10.356615 83.03125,82.937505 v 58.125 c 0,72.58059 -10.3826,82.9375 -83.03125,82.9375 h -73.9375 C 42.382606,268 32.000006,257.64309 32.000006,185.0625 v -58.125 c 0,-72.58089 10.3826,-82.937505 83.031254,-82.937505 z" transform="matrix(0.26970778,0,0,0.26970778,-7.1289177,220.56049)"/>
  <path d="m 188.96876,45.999995 c 72.64865,0 83.03125,10.356615 83.03125,82.937505 v 58.125 c 0,72.58059 -10.3826,82.9375 -83.03125,82.9375 h -73.9375 C 42.382606,270 32.000006,259.64309 32.000006,187.0625 v -58.125 c 0,-72.58089 10.3826,-82.937505 83.031254,-82.937505 z" transform="matrix(0.26970778,0,0,0.26970778,-7.1289177,220.56049)" style="opacity:0.2;filter:url(#filter907)"/>
  <path style="fill:#4e91d9" d="m 43.837426,232.48587 c 19.593907,0 22.394175,2.79326 22.394175,22.36889 v 15.67677 c 0,19.57555 -2.800268,22.36888 -22.394175,22.36888 h -19.94152 c -19.5939064,0 -22.3941745,-2.79333 -22.3941745,-22.36888 v -15.67677 c 0,-19.57563 2.8002681,-22.36889 22.3941745,-22.36889 z"/>
  <g transform="matrix(0.57597716,0,0,0.57597716,5.2434299,236.37531)">
   <path d="m 47.810846,18.335026 -2.114543,8.156408 -6.966917,26.781295 -5.225638,-17.437 -0.559889,-1.781832 H 31.108814 -6.2760896 v 4.877009 l 35.5186046,0.123065 7.278565,24.187505 2.550308,8.500031 2.239559,-8.593342 7.091043,-27.219129 4.229978,12.781452 2.302066,6.937118 2.425292,-6.905716 5.007754,-14.374872 6.190038,18.968515 0.558998,1.719029 h 1.804682 l 34.816732,-0.02019 v -5.11163 L 72.724592,50.054487 64.793268,25.804182 62.492097,18.80426 60.065909,25.77278 55.058155,40.147653 50.454917,26.335322 Z" style="fill:#311515;filter:url(#filter1034);opacity:0.3"/>
   <path style="fill:#ffffff" d="m 47.810846,18.335026 -2.114543,8.156408 -6.966917,26.781295 -5.225638,-17.437 -0.559889,-1.781832 H 31.108814 -6.2760896 v 4.877009 l 35.5186046,0.123065 7.278565,24.187505 2.550308,8.500031 2.239559,-8.593342 7.091043,-27.219129 4.229978,12.781452 2.302066,6.937118 2.425292,-6.905716 5.007754,-14.374872 6.190038,18.968515 0.558998,1.719029 h 1.804682 l 34.816732,-0.02019 v -5.11163 L 72.724592,50.054487 64.793268,25.804182 62.492097,18.80426 60.065909,25.77278 55.058155,40.147653 50.454917,26.335322 Z"/>
   <g transform="translate(0.16473434,-1.3893269e-4)">
    <path d="M 5.6757812 113.20117 L 5.6757812 155.96094 C 5.6757812 165.20923 5.8413528 173.46653 6.2753906 180.83594 C 6.4924095 184.52064 6.7763601 187.98458 7.140625 191.23828 C 7.5048899 194.49199 7.9489928 197.53624 8.4863281 200.38477 C 9.0236635 203.23329 9.6543949 205.88631 10.390625 208.35547 C 11.126855 210.82463 11.968738 213.109 12.929688 215.22461 C 13.890637 217.34022 14.970148 219.28634 16.181641 221.07422 C 17.393133 222.86209 18.736749 224.49256 20.224609 225.97852 C 21.71247 227.46447 23.344713 228.80577 25.134766 230.01562 C 26.924819 231.22548 28.872165 232.3041 30.990234 233.26367 C 33.108304 234.22324 35.39723 235.06373 37.869141 235.79883 C 40.341051 236.53393 42.99608 237.16277 45.847656 237.69922 C 48.699233 238.23567 51.74684 238.67936 55.003906 239.04297 C 58.260972 239.40658 61.727635 239.69161 65.416016 239.9082 C 72.792776 240.34139 81.057489 240.50586 90.314453 240.50586 L 165.68555 240.50586 C 174.94251 240.50586 183.20722 240.34139 190.58398 239.9082 C 194.27236 239.69161 197.73903 239.40658 200.99609 239.04297 C 204.25316 238.67936 207.30077 238.23567 210.15234 237.69922 C 213.00392 237.16277 215.65895 236.53393 218.13086 235.79883 C 220.60277 235.06373 222.8917 234.22324 225.00977 233.26367 C 227.12784 232.3041 229.07518 231.22548 230.86523 230.01562 C 232.65529 228.80577 234.28753 227.46447 235.77539 225.97852 C 237.26325 224.49256 238.60687 222.86209 239.81836 221.07422 C 241.02985 219.28634 242.10936 217.34022 243.07031 215.22461 C 244.03126 213.109 244.87314 210.82463 245.60938 208.35547 C 246.34561 205.88631 246.97634 203.23329 247.51367 200.38477 C 248.05101 197.53624 248.49511 194.49199 248.85938 191.23828 C 249.22364 187.98458 249.50759 184.52064 249.72461 180.83594 C 250.15865 173.46653 250.32422 165.20923 250.32422 155.96094 L 250.32422 146.10156 C 250.28504 146.17839 249.99933 146.66259 250 146.67188 L 174.20703 146.7168 L 170.27734 146.7168 L 169.06055 142.97461 L 155.58594 101.68164 L 144.68359 132.97461 L 139.4043 148.00781 L 134.39258 132.90625 L 125.18555 105.08203 L 109.74805 164.33594 L 104.87305 183.04297 L 99.320312 164.53906 L 83.476562 111.88477 L 6.1542969 111.61719 C 6.1542969 111.61719 5.726057 113.02349 5.6757812 113.20117 z" transform="matrix(0.45936428,0,0,0.45936428,-9.2682722,-12.341757)" style="opacity:0.1;fill:#ffffff"/>
   </g>
  </g>
  <path style="opacity:0.2;fill:none;stroke:url(#linearGradient1108);stroke-width:8;stroke-linecap:round;stroke-linejoin:round" d="M 361.9375,-212 C 507.2348,-212 528,-191.28677 528,-46.125 V 70.125 C 528,215.28618 507.2348,236 361.9375,236 H 214.0625 C 68.7652,236 48,215.28618 48,70.125 V -46.125 C 48,-191.28677 68.7652,-212 214.0625,-212 Z" clip-path="url(#clipPath1082-3-7-2)" transform="matrix(0.13485389,0,0,0.13485389,-4.9712555,261.01666)"/>
 </g>
</svg>
